X:102
T:Saymor's Reel TS.102
T:Seymour's Reel,aka TS.102
T:Torryburn Lasses,aka TS.102
T:Tadie?s Wattle,aka TS.102
M:C|
L:1/8
Q:1/2=90
S:Thomas Sands' MS,1810,Lincolnshire
R:reel
O:England;Lincolnshire
Z:vmp.Ruairidh Greig, 2011
K:G
G2BG (Bd)dB|c2ec eggB|G2BG Bcdg|edcB B2A2:|
g2ag afed| edef gdBG|g2ga agfe|edefg2ga|
bagf gfed|edef gdBG|cBcd efge|dcBA G2G2|]

